X: 1
T: Aidan's Waltz
C: Keith Murphy
R: waltz
S: Handout at workshop; later found in Keith's book
B: Keith Murphy "Black Isle Music" v.1 p.1
Z: 2015 John Chambers <jc:trillian.mit.edu>
M: 3/4
L: 1/8
K: Emix
|:\
"E"EB de cA | AB BA GA |\
EB df ec | B2 BA GA |\
"E"EB de cA | AB BA GA |\
B2 BA GE |
"D"D2 CD B,D ::\
"D"DE FA GE | F2 FE DE |\
"D"DE F"E"G AB | "A"c2 cd e2 |\
DE FA GE | "D"F2 FE DE |
[1 "D"DC B,A, B,C | "E"B,2 B,A, B,C :|\
[2 "D"DE FG AF | GA Bc de |]\
["Last Time" "D"DE FG AF | GA Bc df | "E"e6 |]
